icons/arrow-circle-top.svg

<svg width="24" height="24" viewBox="0 0 24 24" fill="none" xmlns="http://www.w3.org/2000/svg">
<path fill-rule="evenodd" clip-rule="evenodd" d="M3.75 12C3.75 16.5563 7.44365 20.25 12 20.25C16.5563 20.25 20.25 16.5563 20.25 12C20.25 7.44365 16.5563 3.75 12 3.75C7.44365 3.75 3.75 7.44365 3.75 12ZM12 21.75C6.61522 21.75 2.25 17.3848 2.25 12C2.25 6.61522 6.61522 2.25 12 2.25C17.3848 2.25 21.75 6.61522 21.75 12C21.75 17.3848 17.3848 21.75 12 21.75Z" fill="black"/>
<path fill-rule="evenodd" clip-rule="evenodd" d="M12 15.75C11.5858 15.75 11.25 15.4142 11.25 15L11.25 8.4C11.25 7.98579 11.5858 7.65 12 7.65C12.4142 7.65 12.75 7.98579 12.75 8.4L12.75 15C12.75 15.4142 12.4142 15.75 12 15.75Z" fill="black"/>
<path fill-rule="evenodd" clip-rule="evenodd" d="M8.46967 11.5303C8.17678 11.2374 8.17678 10.7626 8.46967 10.4697L10.9697 7.96967C11.4626 7.47678 12.2374 7.47678 12.7303 7.96967L15.2303 10.4697C15.5232 10.7626 15.5232 11.2374 15.2303 11.5303C14.9374 11.8232 14.4626 11.8232 14.1697 11.5303L11.85 9.21066L9.53033 11.5303C9.23744 11.8232 8.76256 11.8232 8.46967 11.5303Z" fill="black"/>
</svg>

<svg xmlns="http://www.w3.org/2000/svg" fill="none" viewBox="0 0 24 24">
  <path fill="#000" fill-rule="evenodd" d="M3.75 12a8.25 8.25 0 1 0 16.5 0 8.25 8.25 0 0 0-16.5 0ZM12 21.75c-5.385 0-9.75-4.365-9.75-9.75S6.615 2.25 12 2.25s9.75 4.365 9.75 9.75-4.365 9.75-9.75 9.75Z" clip-rule="evenodd"/>
  <path fill="#000" fill-rule="evenodd" d="M12 15.75a.75.75 0 0 1-.75-.75V8.4a.75.75 0 0 1 1.5 0V15a.75.75 0 0 1-.75.75Z" clip-rule="evenodd"/>
  <path fill="#000" fill-rule="evenodd" d="M8.47 11.53a.75.75 0 0 1 0-1.06l2.5-2.5a1.233 1.233 0 0 1 1.76 0l2.5 2.5a.75.75 0 1 1-1.06 1.06l-2.32-2.32-2.32 2.32a.75.75 0 0 1-1.06 0Z" clip-rule="evenodd"/>
</svg>
